icons/outline/bug.svg

<!--
category: Development
tags: [germ, insect, error, nature]
version: "1.1"
unicode: "ea48"
-->
<svg
  xmlns="http://www.w3.org/2000/svg"
  width="24"
  height="24"
  viewBox="0 0 24 24"
  fill="none"
  stroke="currentColor"
  stroke-width="2"
  stroke-linecap="round"
  stroke-linejoin="round"
>
  <path d="M9 9v-1a3 3 0 0 1 6 0v1m-7 0h8a6 6 0 0 1 1 3v3a5 5 0 0 1 -10 0v-3a6 6 0 0 1 1 -3m-5 4l4 0m10 0l4 0m-9 7l0 -6m-8 5l3.35 -2m12.65 2l-3.35 -2m-12.65 -10l3.75 2.4m12.25 -2.4l-3.75 2.4" />
</svg>

<!--
category: Development
tags: [germ, insect, error, nature]
version: "1.1"
unicode: "ea48"
-->
<svg
  xmlns="http://www.w3.org/2000/svg"
  width="24"
  height="24"
  viewBox="0 0 24 24"
  fill="none"
  stroke="currentColor"
  stroke-width="2"
  stroke-linecap="round"
  stroke-linejoin="round"
>
    <path d="M9 9v-1a3 3 0 0 1 6 0v1M8 9h8a6 6 0 0 1 1 3v3a5 5 0 0 1 -10 0v-3a6 6 0 0 1 1 -3M3 13l4 0M17 13l4 0M12 20l0 -6M4 19l3.35 -2M20 19l-3.35 -2M4 7l3.75 2.4M20 7l-3.75 2.4" />
</svg>
